assets/img/figure-bg.svg

<svg width="685" height="890" fill="none" xmlns="http://www.w3.org/2000/svg"><path opacity=".1" d="M430.822 578.525c0 43.957-36.234 77.6-77.66 77.6-41.426 0-77.661-33.643-77.661-77.6 0-43.958 36.235-77.601 77.661-77.601 44.038 0 77.66 33.6 77.66 77.601zm71.695-212.268c0 43.958-36.235 77.601-77.661 77.601s-77.66-33.643-77.66-77.601c0-43.957 36.234-77.6 77.66-77.6 44.038 0 77.661 33.6 77.661 77.6zm74.35-209.613c0 43.957-36.235 77.6-77.661 77.6s-77.66-33.643-77.66-77.6c0-44.001 33.622-77.6 77.66-77.6s77.661 33.599 77.661 77.6zM157.321 728.138c0 43.958-36.234 77.6-77.66 77.6-44.038 0-77.661-33.599-77.661-77.6s33.623-77.6 77.66-77.6c44.038 0 77.661 33.599 77.661 77.6zm71.695-149.613c0 43.957-36.235 77.6-77.661 77.6-44.038 0-77.66-33.6-77.66-77.6 0-44.001 33.622-77.601 77.66-77.601s77.661 33.6 77.661 77.601zm71.694-212.268c0 43.958-36.234 77.601-77.66 77.601-44.038 0-77.661-33.6-77.661-77.601 0-44 33.623-77.6 77.661-77.6 44.037 0 77.66 33.6 77.66 77.6zm74.35-209.613c0 43.957-36.235 77.6-77.661 77.6s-77.66-33.643-77.66-77.6c0-44.001 33.623-77.6 77.66-77.6 44.038 0 77.661 33.599 77.661 77.6z" stroke="#F8AF19" stroke-width="4"/><path opacity=".1" fill-rule="evenodd" clip-rule="evenodd" d="M361.598 627.807c40.451 0 75.845-32.815 75.845-75.727 0-42.912-32.866-75.727-75.845-75.727-40.452 0-75.846 32.815-75.846 75.727 0 42.912 35.394 75.727 75.846 75.727zm68.261-201.939c40.451 0 75.846-32.815 75.846-75.727 0-42.912-32.867-75.727-75.846-75.727-40.451 0-75.846 32.815-75.846 75.727 0 42.912 35.395 75.727 75.846 75.727zm70.789-199.414c40.451 0 75.846-32.815 75.846-75.727 0-42.912-32.867-75.727-75.846-75.727-42.979 0-75.846 32.815-75.846 75.727 0 42.912 35.395 75.727 75.846 75.727zM101.193 797.221c40.452 0 75.846-32.815 75.846-75.727 0-42.912-32.866-75.727-75.846-75.727-42.979 0-75.845 32.815-75.845 75.727 0 42.912 32.866 75.727 75.845 75.727zm68.262-169.414c40.451 0 75.846-32.815 75.846-75.727 0-42.912-32.867-75.727-75.846-75.727-42.98 0-75.846 32.815-75.846 75.727 0 42.912 32.866 75.727 75.846 75.727zm68.261-201.939c40.451 0 75.846-32.815 75.846-75.727 0-42.912-32.867-75.727-75.846-75.727-42.979 0-75.846 32.815-75.846 75.727 0 42.912 32.867 75.727 75.846 75.727zm70.789-199.414c40.452 0 75.846-32.815 75.846-75.727 0-42.912-32.866-75.727-75.846-75.727-42.979 0-75.845 32.815-75.845 75.727 0 42.912 35.394 75.727 75.845 75.727z" fill="url(#paint0_linear)"/><defs><linearGradient id="paint0_linear" x1="164.545" y1="-471.125" x2="576.386" y2="987.672" gradientUnits="userSpaceOnUse"><stop stop-color="#F8AF19"/><stop offset="1" stop-color="#EF791B"/></linearGradient></defs></svg>

<svg width="685" height="890" viewBox="0 0 685 890" fill="none" xmlns="http://www.w3.org/2000/svg">
<path opacity="0.1" d="M430.822 578.525C430.822 622.482 394.588 656.125 353.162 656.125C311.736 656.125 275.501 622.482 275.501 578.525C275.501 534.567 311.736 500.924 353.162 500.924C397.2 500.924 430.822 534.524 430.822 578.525ZM502.517 366.257C502.517 410.215 466.282 443.858 424.856 443.858C383.43 443.858 347.196 410.215 347.196 366.257C347.196 322.3 383.43 288.657 424.856 288.657C468.894 288.657 502.517 322.257 502.517 366.257ZM576.867 156.644C576.867 200.601 540.632 234.244 499.206 234.244C457.78 234.244 421.546 200.601 421.546 156.644C421.546 112.643 455.168 79.0434 499.206 79.0434C543.244 79.0434 576.867 112.643 576.867 156.644ZM157.321 728.138C157.321 772.096 121.087 805.738 79.6605 805.738C35.6227 805.738 2 772.139 2 728.138C2 684.137 35.6227 650.538 79.6605 650.538C123.698 650.538 157.321 684.137 157.321 728.138ZM229.016 578.525C229.016 622.482 192.781 656.125 151.355 656.125C107.317 656.125 73.6945 622.525 73.6945 578.525C73.6945 534.524 107.317 500.924 151.355 500.924C195.393 500.924 229.016 534.524 229.016 578.525ZM300.71 366.257C300.71 410.215 264.476 443.858 223.05 443.858C179.012 443.858 145.389 410.258 145.389 366.257C145.389 322.257 179.012 288.657 223.05 288.657C267.087 288.657 300.71 322.257 300.71 366.257ZM375.06 156.644C375.06 200.601 338.825 234.244 297.399 234.244C255.973 234.244 219.739 200.601 219.739 156.644C219.739 112.643 253.362 79.0434 297.399 79.0434C341.437 79.0434 375.06 112.643 375.06 156.644Z" stroke="#F8AF19" stroke-width="4"/>
<path opacity="0.1" fill-rule="evenodd" clip-rule="evenodd" d="M361.598 627.807C402.049 627.807 437.443 594.992 437.443 552.08C437.443 509.168 404.577 476.353 361.598 476.353C321.146 476.353 285.752 509.168 285.752 552.08C285.752 594.992 321.146 627.807 361.598 627.807ZM429.859 425.868C470.31 425.868 505.705 393.053 505.705 350.141C505.705 307.229 472.838 274.414 429.859 274.414C389.408 274.414 354.013 307.229 354.013 350.141C354.013 393.053 389.408 425.868 429.859 425.868ZM500.648 226.454C541.099 226.454 576.494 193.639 576.494 150.727C576.494 107.815 543.627 75 500.648 75C457.669 75 424.802 107.815 424.802 150.727C424.802 193.639 460.197 226.454 500.648 226.454ZM101.193 797.221C141.645 797.221 177.039 764.406 177.039 721.494C177.039 678.582 144.173 645.767 101.193 645.767C58.2142 645.767 25.3477 678.582 25.3477 721.494C25.3477 764.406 58.2142 797.221 101.193 797.221ZM169.455 627.807C209.906 627.807 245.301 594.992 245.301 552.08C245.301 509.168 212.434 476.353 169.455 476.353C126.475 476.353 93.6089 509.168 93.6089 552.08C93.6089 594.992 126.475 627.807 169.455 627.807ZM237.716 425.868C278.167 425.868 313.562 393.053 313.562 350.141C313.562 307.229 280.695 274.414 237.716 274.414C194.737 274.414 161.87 307.229 161.87 350.141C161.87 393.053 194.737 425.868 237.716 425.868ZM308.505 226.454C348.957 226.454 384.351 193.639 384.351 150.727C384.351 107.815 351.485 75 308.505 75C265.526 75 232.66 107.815 232.66 150.727C232.66 193.639 268.054 226.454 308.505 226.454Z" fill="url(#paint0_linear)"/>
<defs>
<linearGradient id="paint0_linear" x1="164.545" y1="-471.125" x2="576.386" y2="987.672" gradientUnits="userSpaceOnUse">
<stop stop-color="#F8AF19"/>
<stop offset="1" stop-color="#EF791B"/>
</linearGradient>
</defs>
</svg>
